!!! OTL: Berkowitz301
!!! Chapter: 1
!!! Section: III
!!! Page: 72
!!! Mode: 
!!! Encoder: DJB
**kern
*staff1
*I"Piano
=1-
*clefG2
*k[b-e-a-d-g-]
*b-:
*met(c)
*M4/4
4r
4r
4r
8B-/L
8c/J
=2
8d-/L
8d-/
8e-/
8d-/J
4c/
8B-/L
8c/J
=3
8d-/L
8f/
8b-/
8cc/J
4dd-\
8f/L
8dd-/J
=4
4cc\
8g-/L
8cc/J
4b-\
8dd-\L
8b-\J
=5
8cc/L
8cc/
8g-/
8cc/J
4b-\
8ee-\L
8dd-\J
=6
8cc/L
8b-/
8a-/
8g-/J
8f/L
8d-/
8e-/
8c/J
=7
!!linebreak:original
4f/
2B-/
4r
==
*-
